src/extras-unicode/symbol-other/2B20.svg

<svg id="emoji" viewBox="0 0 72 72" xmlns="http://www.w3.org/2000/svg">
  <g id="grid">
    <path fill="#b3b3b3" d="M68,4V68H4V4H68m4-4H0V72H72V0Z"/>
    <path fill="none" stroke="#00a5ff" stroke-miterlimit="10" stroke-width="0.1" d="M12.923,10.9583H59.0769A1.9231,1.9231,0,0,1,61,12.8814V59.0352a1.9231,1.9231,0,0,1-1.9231,1.9231H12.9231A1.9231,1.9231,0,0,1,11,59.0352V12.8813A1.923,1.923,0,0,1,12.923,10.9583Z"/>
    <rect x="16" y="4" rx="2.2537" width="40" height="64" fill="none" stroke="#00a5ff" stroke-miterlimit="10" stroke-width="0.1"/>
    <rect x="16" y="4" rx="2.2537" width="40" height="64" transform="translate(72) rotate(90)" fill="none" stroke="#00a5ff" stroke-miterlimit="10" stroke-width="0.1"/>
    <circle cx="36" cy="36" r="29" fill="none" stroke="#00a5ff" stroke-miterlimit="10" stroke-width="0.1"/>
  </g>
  <g id="color">
    <path fill="#FFFFFF" d="M34.824,10.451 C35.525,9.942 36.475,9.942 37.176,10.451 L62.405,28.781 C63.106,29.291 63.399,30.193 63.132,31.017 L53.495,60.676 C53.227,61.5 52.459,62.058 51.593,62.058 L20.407,62.058 C19.541,62.058 18.773,61.5 18.505,60.676 L8.868,31.017 C8.601,30.193 8.894,29.291 9.595,28.781 L34.824,10.451 z"/>
  </g>
  <g id="line">
    <path fill="none" stroke="#000000" stroke-width="2" d="M34.824,10.451 C35.525,9.942 36.475,9.942 37.176,10.451 L62.405,28.781 C63.106,29.291 63.399,30.193 63.132,31.017 L53.495,60.676 C53.227,61.5 52.459,62.058 51.593,62.058 L20.407,62.058 C19.541,62.058 18.773,61.5 18.505,60.676 L8.868,31.017 C8.601,30.193 8.894,29.291 9.595,28.781 L34.824,10.451 z"/>
  </g>
</svg>

<svg viewBox="0 0 72 72" xmlns="http://www.w3.org/2000/svg"><path fill="#b3b3b3" d="M68 4v64H4V4h64m4-4H0v72h72V0z"/><path fill="none" stroke="#00a5ff" stroke-miterlimit="10" stroke-width=".1" d="M12.923 10.958h46.154A1.923 1.923 0 0161 12.881v46.154a1.923 1.923 0 01-1.923 1.923H12.923A1.923 1.923 0 0111 59.035V12.881a1.923 1.923 0 011.923-1.923z"/><rect x="16" y="4" rx="2.254" width="40" height="64" fill="none" stroke="#00a5ff" stroke-miterlimit="10" stroke-width=".1"/><rect x="16" y="4" rx="2.254" width="40" height="64" transform="rotate(90 36 36)" fill="none" stroke="#00a5ff" stroke-miterlimit="10" stroke-width=".1"/><circle cx="36" cy="36" r="29" fill="none" stroke="#00a5ff" stroke-miterlimit="10" stroke-width=".1"/><path d="M34.824 10.451a2.002 2.002 0 012.352 0l25.229 18.33c.701.51.994 1.412.727 2.236l-9.637 29.659a2 2 0 01-1.902 1.382H20.407a2 2 0 01-1.902-1.382L8.868 31.017a2.002 2.002 0 01.727-2.236l25.229-18.33z" stroke-linecap="round" stroke-miterlimit="10" stroke-width="6" stroke="#fff" fill="none" stroke-linejoin="round"/><path fill="#FFF" d="M34.824 10.451a2.002 2.002 0 012.352 0l25.229 18.33c.701.51.994 1.412.727 2.236l-9.637 29.659a2 2 0 01-1.902 1.382H20.407a2 2 0 01-1.902-1.382L8.868 31.017a2.002 2.002 0 01.727-2.236l25.229-18.33z"/><path fill="none" stroke="#000" stroke-width="2" d="M34.824 10.451a2.002 2.002 0 012.352 0l25.229 18.33c.701.51.994 1.412.727 2.236l-9.637 29.659a2 2 0 01-1.902 1.382H20.407a2 2 0 01-1.902-1.382L8.868 31.017a2.002 2.002 0 01.727-2.236l25.229-18.33z"/></svg>
